dist/svgs/unicons/line/analytics.svg

<svg xmlns="http://www.w3.org/2000/svg" viewBox="0 0 24 24"><path d="M5 12a1 1 0 00-1 1v8a1 1 0 002 0v-8a1 1 0 00-1-1zm5-10a1 1 0 00-1 1v18a1 1 0 002 0V3a1 1 0 00-1-1zm10 14a1 1 0 00-1 1v4a1 1 0 002 0v-4a1 1 0 00-1-1zm-5-8a1 1 0 00-1 1v12a1 1 0 002 0V9a1 1 0 00-1-1z"/></svg>

<svg xmlns="http://www.w3.org/2000/svg" viewBox="0 0 24 24"><path d="M5,12a1,1,0,0,0-1,1v8a1,1,0,0,0,2,0V13A1,1,0,0,0,5,12ZM10,2A1,1,0,0,0,9,3V21a1,1,0,0,0,2,0V3A1,1,0,0,0,10,2ZM20,16a1,1,0,0,0-1,1v4a1,1,0,0,0,2,0V17A1,1,0,0,0,20,16ZM15,8a1,1,0,0,0-1,1V21a1,1,0,0,0,2,0V9A1,1,0,0,0,15,8Z"/></svg>
